; generated by Slic3r 0.7.1 on 2012-06-03 at 11:54:29

; layer_height = .25
; perimeters = 2
; solid_layers = 3
; fill_density = .20
; nozzle_diameter = .35
; filament_diameter = 1.75
; extrusion_multiplier = 1
; perimeter_speed = 100
; infill_speed = 125
; travel_speed = 150
; extrusion_width_ratio = 0
; scale = 1.0
; single wall width = 0.39mm

M190 S100 ; set bed temperature
M104 S225 ; set temperature
G28 ; home all axes
M109 S225 ; wait for temperature to be reached
G90 ; use absolute coordinates
G21 ; set units to millimeters
G92 E0 ; reset extrusion distance
M82 ; use absolute distances for extrusion
G1 Z0.400 F9000.000
G1 X75.114 Y106.587
G1 F1800.000 E1.50000
G1 X75.754 Y106.027 F4200.000 E1.53402
G1 X77.144 Y104.977 E1.60370
G1 X77.874 Y104.507 E1.63843
G1 X79.404 Y103.667 E1.70824
G1 X80.134 Y103.327 E1.74045
G1 X81.764 Y102.697 E1.81035
G1 X82.614 Y102.437 E1.84591
G1 X84.314 Y102.057 E1.91559
G1 X85.144 Y101.937 E1.94913
G1 X86.884 Y101.797 E2.01896
G1 X87.744 Y101.787 E2.05336
G1 X89.484 Y101.897 E2.12310
G1 X90.294 Y102.007 E2.15580
G1 X121.954 Y108.457 E3.44821
G1 X123.104 Y108.837 E3.49666
G1 X123.684 Y109.077 E3.52176
G1 X124.664 Y109.577 E3.56577
G1 X125.734 Y110.247 E3.61627
G1 X126.594 Y110.917 E3.65988
G1 X127.494 Y111.757 E3.70912
G1 X128.304 Y112.697 E3.75875
G1 X128.934 Y113.597 E3.80270
G1 X129.244 Y114.107 E3.82657
G1 X129.804 Y115.247 E3.87738
G1 X130.014 Y115.747 E3.89907
G1 X130.394 Y116.897 E3.94751
G1 X130.534 Y117.467 E3.97099
G1 X130.724 Y118.587 E4.01643
G1 X130.814 Y119.777 E4.06417
G1 X130.784 Y120.977 E4.11218
G1 X130.634 Y122.167 E4.16016
G1 X130.534 Y122.697 E4.18173
G1 X130.394 Y123.267 E4.20521
G1 X130.014 Y124.417 E4.25366
G1 X129.554 Y125.457 E4.29915
G1 X129.244 Y126.057 E4.32616
G1 X128.934 Y126.567 E4.35003
G1 X128.264 Y127.497 E4.39588
G1 X127.894 Y127.957 E4.41949
G1 X127.094 Y128.797 E4.46589
G1 X126.214 Y129.557 E4.51241
G1 X125.734 Y129.917 E4.53641
G1 X124.664 Y130.587 E4.58690
G1 X123.684 Y131.087 E4.63091
G1 X122.544 Y131.527 E4.67979
G1 X121.954 Y131.707 E4.70446
G1 X90.704 Y138.057 E5.98001
G1 X84.994 Y138.117 E6.20842
G1 X84.744 Y138.117 E6.21842
G1 X83.974 Y138.037 E6.24939
G1 X82.584 Y137.717 E6.30644
G1 X81.104 Y137.237 E6.36868
G1 X80.104 Y136.837 E6.41176
G1 X78.604 Y136.087 E6.47884
G1 X76.844 Y134.987 E6.56186
G1 X75.984 Y134.337 E6.60498
G1 X74.394 Y132.887 E6.69106
G1 X73.314 Y131.677 E6.75593
G1 X72.374 Y130.417 E6.81881
G1 X71.514 Y129.037 E6.88385
G1 X70.804 Y127.627 E6.94700
G1 X70.194 Y126.107 E7.01251
G1 X69.744 Y124.607 E7.07515
G1 X69.404 Y123.007 E7.14058
G1 X69.224 Y121.437 E7.20379
G1 X69.174 Y120.367 E7.24664
G1 X69.184 Y119.647 E7.27544
G1 X69.314 Y117.897 E7.34564
G1 X69.434 Y117.057 E7.37958
G1 X69.804 Y115.357 E7.44917
G1 X70.034 Y114.577 E7.48170
G1 X70.634 Y112.937 E7.55155
G1 X71.004 Y112.107 E7.58790
G1 X71.844 Y110.577 E7.65772
G1 X72.274 Y109.907 E7.68956
G1 X73.314 Y108.497 E7.75964
G1 X73.884 Y107.827 E7.79483
G1 X75.072 Y106.629 E7.86233
G1 F1800.000 E6.36233
G92 E0
G1 X82.738 Y115.351 F9000.000
G1 F1800.000 E1.50000
G1 X83.225 Y114.910 F4200.000 E1.52629
G1 X83.753 Y114.518 E1.55258
G1 X84.317 Y114.180 E1.57887
G1 X84.911 Y113.899 E1.60516
G1 X85.529 Y113.678 E1.63145
G1 X86.167 Y113.518 E1.65774
G1 X86.817 Y113.422 E1.68403
G1 X87.474 Y113.390 E1.71032
G1 X88.130 Y113.422 E1.73661
G1 X88.780 Y113.518 E1.76290
G1 X89.418 Y113.678 E1.78919
G1 X90.037 Y113.899 E1.81548
G1 X90.631 Y114.180 E1.84177
G1 X91.195 Y114.518 E1.86806
G1 X91.722 Y114.910 E1.89435
G1 X92.209 Y115.351 E1.92064
G1 X92.651 Y115.838 E1.94693
G1 X93.042 Y116.366 E1.97322
G1 X93.380 Y116.930 E1.99951
G1 X93.661 Y117.524 E2.02580
G1 X93.883 Y118.143 E2.05209
G1 X94.042 Y118.780 E2.07838
G1 X94.139 Y119.430 E2.10467
G1 X94.171 Y120.087 E2.13096
G1 X94.139 Y120.743 E2.15725
G1 X94.042 Y121.394 E2.18354
G1 X93.883 Y122.031 E2.20983
G1 X93.661 Y122.650 E2.23612
G1 X93.380 Y123.244 E2.26241
G1 X93.042 Y123.808 E2.28870
G1 X92.651 Y124.336 E2.31499
G1 X92.209 Y124.823 E2.34128
G1 X91.722 Y125.264 E2.36757
G1 X91.195 Y125.656 E2.39387
G1 X90.631 Y125.994 E2.42016
G1 X90.037 Y126.275 E2.44645
G1 X89.418 Y126.496 E2.47274
G1 X88.780 Y126.656 E2.49903
G1 X88.130 Y126.752 E2.52532
G1 X87.474 Y126.784 E2.55161
G1 X86.817 Y126.752 E2.57790
G1 X86.167 Y126.656 E2.60419
G1 X85.529 Y126.496 E2.63048
G1 X84.911 Y126.275 E2.65677
G1 X84.317 Y125.994 E2.68306
G1 X83.753 Y125.656 E2.70935
G1 X83.225 Y125.264 E2.73564
G1 X82.738 Y124.823 E2.76193
G1 X82.296 Y124.336 E2.78822
G1 X81.905 Y123.808 E2.81451
G1 X81.567 Y123.244 E2.84080
G1 X81.286 Y122.650 E2.86709
G1 X81.065 Y122.031 E2.89338
G1 X80.905 Y121.394 E2.91967
G1 X80.808 Y120.743 E2.94596
G1 X80.776 Y120.087 E2.97225
G1 X80.808 Y119.430 E2.99854
G1 X80.905 Y118.780 E3.02483
G1 X81.065 Y118.143 E3.05112
G1 X81.286 Y117.524 E3.07741
G1 X81.567 Y116.930 E3.10370
G1 X81.905 Y116.366 E3.12999
G1 X82.296 Y115.838 E3.15628
G1 X82.698 Y115.395 E3.18020
G1 X82.471 Y115.084 F9000.000
G1 X82.985 Y114.618 F4200.000 E3.20797
G1 X83.543 Y114.204 E3.23575
G1 X84.139 Y113.848 E3.26352
G1 X84.766 Y113.551 E3.29129
G1 X85.420 Y113.317 E3.31906
G1 X86.093 Y113.148 E3.34683
G1 X86.780 Y113.046 E3.37460
G1 X87.474 Y113.012 E3.40238
G1 X88.167 Y113.046 E3.43015
G1 X88.854 Y113.148 E3.45792
G1 X89.527 Y113.317 E3.48569
G1 X90.181 Y113.551 E3.51346
G1 X90.809 Y113.848 E3.54123
G1 X91.404 Y114.204 E3.56901
G1 X91.962 Y114.618 E3.59678
G1 X92.476 Y115.084 E3.62455
G1 X92.943 Y115.599 E3.65232
G1 X93.356 Y116.156 E3.68009
G1 X93.713 Y116.752 E3.70786
G1 X94.010 Y117.380 E3.73564
G1 X94.244 Y118.033 E3.76341
G1 X94.413 Y118.707 E3.79118
G1 X94.514 Y119.393 E3.81895
G1 X94.548 Y120.087 E3.84672
G1 X94.514 Y120.780 E3.87449
G1 X94.413 Y121.467 E3.90226
G1 X94.244 Y122.141 E3.93004
G1 X94.010 Y122.794 E3.95781
G1 X93.713 Y123.422 E3.98558
G1 X93.356 Y124.017 E4.01335
G1 X92.943 Y124.575 E4.04112
G1 X92.476 Y125.090 E4.06889
G1 X91.962 Y125.556 E4.09667
G1 X91.404 Y125.969 E4.12444
G1 X90.809 Y126.326 E4.15221
G1 X90.181 Y126.623 E4.17998
G1 X89.527 Y126.857 E4.20775
G1 X88.854 Y127.026 E4.23552
G1 X88.167 Y127.128 E4.26330
G1 X87.474 Y127.162 E4.29107
G1 X86.780 Y127.128 E4.31884
G1 X86.093 Y127.026 E4.34661
G1 X85.420 Y126.857 E4.37438
G1 X84.766 Y126.623 E4.40215
G1 X84.139 Y126.326 E4.42993
G1 X83.543 Y125.969 E4.45770
G1 X82.985 Y125.556 E4.48547
G1 X82.471 Y125.090 E4.51324
G1 X82.005 Y124.575 E4.54101
G1 X81.591 Y124.017 E4.56878
G1 X81.234 Y123.422 E4.59655
G1 X80.937 Y122.794 E4.62433
G1 X80.703 Y122.141 E4.65210
G1 X80.535 Y121.467 E4.67987
G1 X80.433 Y120.780 E4.70764
G1 X80.399 Y120.087 E4.73541
G1 X80.433 Y119.393 E4.76318
G1 X80.535 Y118.707 E4.79096
G1 X80.703 Y118.033 E4.81873
G1 X80.937 Y117.380 E4.84650
G1 X81.234 Y116.752 E4.87427
G1 X81.591 Y116.156 E4.90204
G1 X82.005 Y115.599 E4.92981
G1 X82.431 Y115.128 E4.95522
G1 F1800.000 E3.45522
G92 E0
G1 X78.432 Y112.313 F9000.000
G1 F1800.000 E1.50000
G1 X79.624 Y111.111 F4200.000 E1.56769
G1 X80.973 Y110.090 E1.63538
G1 X82.454 Y109.271 E1.70307
G1 X84.036 Y108.669 E1.77076
G1 X85.687 Y108.297 E1.83845
G1 X87.373 Y108.163 E1.90615
G1 X89.062 Y108.269 E1.97384
G1 X90.719 Y108.613 E2.04153
G1 X92.311 Y109.188 E2.10922
G1 X93.805 Y109.982 E2.17691
G1 X95.172 Y110.980 E2.24460
G1 X96.383 Y112.162 E2.31229
G1 X97.416 Y113.503 E2.37998
G1 X98.247 Y114.976 E2.44767
G1 X98.862 Y116.553 E2.51536
G1 X99.248 Y118.201 E2.58305
G1 X99.396 Y119.887 E2.65075
G1 X99.305 Y121.576 E2.71844
G1 X98.975 Y123.236 E2.78613
G1 X98.413 Y124.832 E2.85382
G1 X97.631 Y126.333 E2.92151
G1 X96.645 Y127.708 E2.98920
G1 X95.473 Y128.930 E3.05689
G1 X94.141 Y129.973 E3.12458
G1 X92.674 Y130.817 E3.19227
G1 X91.103 Y131.446 E3.25996
G1 X90.572 Y131.575 E3.28184
G1 X90.632 Y131.334 E3.29175
G1 X90.673 Y130.835 E3.31177
G1 X90.673 Y127.012 E3.46469
G1 X88.710 Y127.509 E3.54569
G1 X87.474 Y127.611 E3.59529
G1 X86.238 Y127.509 E3.64490
G1 X84.275 Y127.013 E3.72589
G1 X84.275 Y130.835 E3.87881
G1 X84.316 Y131.334 E3.89883
G1 X84.383 Y131.601 E3.90983
G1 X83.467 Y131.319 E3.94816
G1 X82.498 Y130.925 E3.98999
G1 X81.568 Y130.447 E4.03182
G1 X80.683 Y129.890 E4.07366
G1 X79.850 Y129.257 E4.11549
G1 X79.076 Y128.554 E4.15732
G1 X78.367 Y127.786 E4.19915
G1 X77.727 Y126.958 E4.24099
G1 X77.162 Y126.078 E4.28282
G1 X76.677 Y125.152 E4.32465
G1 X76.275 Y124.186 E4.36648
G1 X75.959 Y123.189 E4.40832
G1 X75.731 Y122.169 E4.45015
G1 X75.594 Y121.132 E4.49198
G1 X75.549 Y120.095 E4.53350
G1 X75.669 Y118.399 E4.60150
G1 X76.027 Y116.745 E4.66920
G1 X76.615 Y115.158 E4.73689
G1 X77.423 Y113.671 E4.80458
G1 X78.397 Y112.360 E4.86990
G1 X78.145 Y112.066 F9000.000
G1 X79.375 Y110.826 F4200.000 E4.93974
G1 X80.767 Y109.773 E5.00957
G1 X82.295 Y108.928 E5.07941
G1 X83.927 Y108.307 E5.14925
G1 X85.630 Y107.924 E5.21908
G1 X87.370 Y107.785 E5.28892
G1 X89.113 Y107.894 E5.35875
G1 X90.822 Y108.249 E5.42859
G1 X92.464 Y108.842 E5.49843
G1 X94.006 Y109.662 E5.56826
G1 X95.416 Y110.692 E5.63810
G1 X96.666 Y111.911 E5.70793
G1 X97.731 Y113.294 E5.77777
G1 X98.589 Y114.815 E5.84761
G1 X99.223 Y116.441 E5.91744
G1 X99.621 Y118.141 E5.98728
G1 X99.774 Y119.880 E6.05711
G1 X99.680 Y121.624 E6.12695
G1 X99.339 Y123.336 E6.19679
G1 X98.760 Y124.983 E6.26662
G1 X97.953 Y126.531 E6.33646
G1 X96.935 Y127.950 E6.40629
G1 X95.727 Y129.210 E6.47613
G1 X94.352 Y130.286 E6.54597
G1 X92.839 Y131.157 E6.61580
G1 X91.218 Y131.806 E6.68564
G1 X89.979 Y132.107 E6.73665
G1 X90.146 Y131.721 E6.75347
G1 X90.259 Y131.273 E6.77196
G1 X90.296 Y130.820 E6.79012
G1 X90.296 Y127.496 E6.92306
G1 X88.772 Y127.882 E6.98594
G1 X87.474 Y127.989 E7.03804
G1 X86.176 Y127.882 E7.09014
G1 X84.652 Y127.497 E7.15302
G1 X84.652 Y130.820 E7.28596
G1 X84.689 Y131.273 E7.30412
G1 X84.801 Y131.721 E7.32262
G1 X84.975 Y132.121 E7.34008
G1 X84.371 Y131.992 E7.36479
G1 X83.340 Y131.674 E7.40795
G1 X82.341 Y131.268 E7.45110
G1 X81.381 Y130.775 E7.49426
G1 X80.468 Y130.200 E7.53741
G1 X79.609 Y129.547 E7.58057
G1 X78.810 Y128.822 E7.62373
G1 X78.078 Y128.029 E7.66688
G1 X77.419 Y127.176 E7.71004
G1 X76.836 Y126.268 E7.75319
G1 X76.336 Y125.312 E7.79635
G1 X75.921 Y124.316 E7.83951
G1 X75.595 Y123.287 E7.88266
G1 X75.360 Y122.234 E7.92582
G1 X75.218 Y121.165 E7.96897
G1 X75.171 Y120.090 E8.01202
G1 X75.295 Y118.345 E8.08197
G1 X75.664 Y116.639 E8.15180
G1 X76.271 Y115.002 E8.22164
G1 X77.104 Y113.467 E8.29147
G1 X78.110 Y112.114 E8.35894
G1 F1800.000 E6.85894
G92 E0
G1 X113.801 Y119.097 F9000.000
G1 F1800.000 E1.50000
G1 X113.922 Y118.614 F4200.000 E1.51991
G1 X114.090 Y118.146 E1.53982
G1 X114.303 Y117.696 E1.55973
G1 X114.559 Y117.269 E1.57965
G1 X114.855 Y116.869 E1.59956
G1 X115.190 Y116.500 E1.61947
G1 X115.558 Y116.166 E1.63938
G1 X115.958 Y115.869 E1.65929
G1 X116.385 Y115.613 E1.67920
G1 X116.835 Y115.401 E1.69911
G1 X117.304 Y115.233 E1.71902
G1 X117.787 Y115.112 E1.73894
G1 X118.279 Y115.039 E1.75885
G1 X118.776 Y115.015 E1.77876
G1 X119.274 Y115.039 E1.79867
G1 X119.766 Y115.112 E1.81858
G1 X120.249 Y115.233 E1.83849
G1 X120.717 Y115.401 E1.85840
G1 X121.167 Y115.613 E1.87832
G1 X121.594 Y115.869 E1.89823
G1 X121.994 Y116.166 E1.91814
G1 X122.363 Y116.500 E1.93805
G1 X122.697 Y116.869 E1.95796
G1 X122.994 Y117.269 E1.97787
G1 X123.250 Y117.696 E1.99778
G1 X123.463 Y118.146 E2.01770
G1 X123.630 Y118.614 E2.03761
G1 X123.751 Y119.097 E2.05752
G1 X123.824 Y119.590 E2.07743
G1 X123.849 Y120.087 E2.09734
G1 X123.824 Y120.584 E2.11725
G1 X123.751 Y121.077 E2.13716
G1 X123.630 Y121.559 E2.15707
G1 X123.463 Y122.028 E2.17699
G1 X123.250 Y122.478 E2.19690
G1 X122.994 Y122.905 E2.21681
G1 X122.697 Y123.305 E2.23672
G1 X122.363 Y123.674 E2.25663
G1 X121.994 Y124.008 E2.27654
G1 X121.594 Y124.304 E2.29645
G1 X121.167 Y124.560 E2.31637
G1 X120.717 Y124.773 E2.33628
G1 X120.249 Y124.941 E2.35619
G1 X119.766 Y125.062 E2.37610
G1 X119.274 Y125.135 E2.39601
G1 X118.776 Y125.159 E2.41592
G1 X118.279 Y125.135 E2.43583
G1 X117.787 Y125.062 E2.45575
G1 X117.304 Y124.941 E2.47566
G1 X116.835 Y124.773 E2.49557
G1 X116.385 Y124.560 E2.51548
G1 X115.958 Y124.304 E2.53539
G1 X115.558 Y124.008 E2.55530
G1 X115.190 Y123.674 E2.57521
G1 X114.855 Y123.305 E2.59512
G1 X114.559 Y122.905 E2.61504
G1 X114.303 Y122.478 E2.63495
G1 X114.090 Y122.028 E2.65486
G1 X113.922 Y121.559 E2.67477
G1 X113.801 Y121.077 E2.69468
G1 X113.728 Y120.584 E2.71459
G1 X113.704 Y120.087 E2.73450
G1 X113.728 Y119.590 E2.75442
G1 X113.793 Y119.156 E2.77196
G1 X113.431 Y119.024 F9000.000
G1 X113.561 Y118.505 F4200.000 E2.79335
G1 X113.741 Y118.001 E2.81475
G1 X113.970 Y117.518 E2.83614
G1 X114.245 Y117.059 E2.85753
G1 X114.564 Y116.630 E2.87892
G1 X114.923 Y116.233 E2.90032
G1 X115.319 Y115.874 E2.92171
G1 X115.749 Y115.556 E2.94310
G1 X116.207 Y115.281 E2.96450
G1 X116.691 Y115.052 E2.98589
G1 X117.194 Y114.872 E3.00728
G1 X117.713 Y114.742 E3.02867
G1 X118.242 Y114.663 E3.05007
G1 X118.776 Y114.637 E3.07146
G1 X119.311 Y114.663 E3.09285
G1 X119.840 Y114.742 E3.11425
G1 X120.358 Y114.872 E3.13564
G1 X120.862 Y115.052 E3.15703
G1 X121.345 Y115.281 E3.17842
G1 X121.804 Y115.556 E3.19982
G1 X122.234 Y115.874 E3.22121
G1 X122.630 Y116.233 E3.24260
G1 X122.989 Y116.630 E3.26399
G1 X123.308 Y117.059 E3.28539
G1 X123.583 Y117.518 E3.30678
G1 X123.811 Y118.001 E3.32817
G1 X123.991 Y118.505 E3.34957
G1 X124.121 Y119.024 E3.37096
G1 X124.200 Y119.553 E3.39235
G1 X124.226 Y120.087 E3.41374
G1 X124.200 Y120.621 E3.43514
G1 X124.121 Y121.150 E3.45653
G1 X123.991 Y121.669 E3.47792
G1 X123.811 Y122.172 E3.49932
G1 X123.583 Y122.656 E3.52071
G1 X123.308 Y123.115 E3.54210
G1 X122.989 Y123.544 E3.56349
G1 X122.630 Y123.941 E3.58489
G1 X122.234 Y124.300 E3.60628
G1 X121.804 Y124.618 E3.62767
G1 X121.345 Y124.893 E3.64906
G1 X120.862 Y125.122 E3.67046
G1 X120.358 Y125.302 E3.69185
G1 X119.840 Y125.432 E3.71324
G1 X119.311 Y125.511 E3.73464
G1 X118.776 Y125.537 E3.75603
G1 X118.242 Y125.511 E3.77742
G1 X117.713 Y125.432 E3.79881
G1 X117.194 Y125.302 E3.82021
G1 X116.691 Y125.122 E3.84160
G1 X116.207 Y124.893 E3.86299
G1 X115.749 Y124.618 E3.88439
G1 X115.319 Y124.300 E3.90578
G1 X114.923 Y123.941 E3.92717
G1 X114.564 Y123.544 E3.94856
G1 X114.245 Y123.115 E3.96996
G1 X113.970 Y122.656 E3.99135
G1 X113.741 Y122.172 E4.01274
G1 X113.561 Y121.669 E4.03414
G1 X113.431 Y121.150 E4.05553
G1 X113.353 Y120.621 E4.07692
G1 X113.327 Y120.087 E4.09831
G1 X113.353 Y119.553 E4.11971
G1 X113.423 Y119.082 E4.13873
G1 X113.210 Y118.980 F9000.000
G1 X113.346 Y118.440 F4200.000 E4.16101
G1 X113.533 Y117.915 E4.18329
G1 X113.771 Y117.412 E4.20557
G1 X114.058 Y116.934 E4.22784
G1 X114.389 Y116.487 E4.25012
G1 X114.763 Y116.074 E4.27240
G1 X115.176 Y115.700 E4.29467
G1 X115.623 Y115.368 E4.31695
G1 X116.101 Y115.082 E4.33923
G1 X116.605 Y114.844 E4.36151
G1 X117.129 Y114.656 E4.38378
G1 X117.669 Y114.521 E4.40606
G1 X118.220 Y114.439 E4.42834
G1 X118.776 Y114.412 E4.45062
G1 X119.333 Y114.439 E4.47289
G1 X119.884 Y114.521 E4.49517
G1 X120.424 Y114.656 E4.51745
G1 X120.948 Y114.844 E4.53973
G1 X121.452 Y115.082 E4.56200
G1 X121.929 Y115.368 E4.58428
G1 X122.377 Y115.700 E4.60656
G1 X122.789 Y116.074 E4.62884
G1 X123.163 Y116.487 E4.65111
G1 X123.495 Y116.934 E4.67339
G1 X123.781 Y117.412 E4.69567
G1 X124.020 Y117.915 E4.71795
G1 X124.207 Y118.440 E4.74022
G1 X124.342 Y118.980 E4.76250
G1 X124.424 Y119.531 E4.78478
G1 X124.452 Y120.087 E4.80706
G1 X124.424 Y120.643 E4.82933
G1 X124.342 Y121.194 E4.85161
G1 X124.207 Y121.734 E4.87389
G1 X124.020 Y122.259 E4.89617
G1 X123.781 Y122.762 E4.91844
G1 X123.495 Y123.240 E4.94072
G1 X123.163 Y123.687 E4.96300
G1 X122.789 Y124.100 E4.98528
G1 X122.377 Y124.474 E5.00755
G1 X121.929 Y124.806 E5.02983
G1 X121.452 Y125.092 E5.05211
G1 X120.948 Y125.330 E5.07439
G1 X120.424 Y125.518 E5.09666
G1 X119.884 Y125.653 E5.11894
G1 X119.333 Y125.735 E5.14122
G1 X118.776 Y125.762 E5.16350
G1 X118.220 Y125.735 E5.18577
G1 X117.669 Y125.653 E5.20805
G1 X117.129 Y125.518 E5.23033
G1 X116.605 Y125.330 E5.25260
G1 X116.101 Y125.092 E5.27488
G1 X115.623 Y124.806 E5.29716
G1 X115.176 Y124.474 E5.31944
G1 X114.763 Y124.100 E5.34171
